X:1
T:Polska i D-dur efter Ola i Skarup
M:3/4
L:1/16
O:Skarup, Blekinge
R:Slängpolska
N:Se även uppteckningarna + och +. Jämför +.
Z:Andy Davey 2018
K:D
|: d2dA F2FA d2dc | B2BA B4 d4 | cdef g2ge gfed | cdef edcB A2Bc | 
   d2dA F2FA d2dc | B2BA B4 d4 | cdef g2e2 gfed | cABc e2d2 d4 :| 
|: DFAF DFAF DFAF | DGBG DGBG DGBG | Acec Acec Acec | dcdf edcB A2Bc |  
   d2dA F2FA d2dc | B2BA B4 d4 | cdef g2e2 gfed | cABc e2d2 d4 :|

